proprietary/assets/icons/huishouden/wasmachine.svg

<svg height="64" viewBox="0 0 64 64" width="64" xmlns="http://www.w3.org/2000/svg"><path d="m0 0h64v64h-64z" fill="none"/><path d="m61.7751 32.2535-8.5604-11.6379c-.2841-.3882-.7368-.6172-1.218-.6158l-5.3231.0152c-.2165.0007-.4203.071-.587.1924-.1655.123-.2933.2966-.3584.5031l-1.5998 5.077c-.1446.4589-.0609.9593.2252 1.3461l8.5604 11.6379c.3292.4451.9864.5175 1.4315.1884l7.1831-5.2836c.4469-.327.5735-.9759.2465-1.4228zm-11.8797-7.0379c-.6778.4894-1.6211.3492-2.1156-.3193-.496-.6707-.3517-1.618.3203-2.1215.6807-.4915 1.6279-.3471 2.1205.3261.4909.6712.3439 1.6135-.3252 2.1147z"/><path d="m41 8h-36c-1.1046 0-2 .8954-2 2v44c0 1.1046.8954 2 2 2h36c1.1046 0 2-.8954 2-2v-44c0-1.1046-.8954-2-2-2zm-34 5h8v3h-8zm16 32.13c-7.2515 0-13.13-5.8785-13.13-13.13s5.8785-13.13 13.13-13.13 13.13 5.8785 13.13 13.13-5.8785 13.13-13.13 13.13zm13.5-28.0543c-1.4225 0-2.5757-1.1533-2.5757-2.5757 0-1.4226 1.1532-2.5757 2.5757-2.5757s2.5757 1.1531 2.5757 2.5757c0 1.4225-1.1532 2.5757-2.5757 2.5757z"/><path d="m29.2114 28.6176c-1.2096 0-2.3425-.8448-3.1266-1.433-.7841.5883-1.9194 1.433-3.1266 1.433-1.2097 0-2.3425-.8448-3.1266-1.433-.7841.5883-1.9194 1.433-3.1266 1.433-.9816 0-1.9092-.5557-2.6445-1.0799-.6727 1.3446-1.0605 2.8565-1.0605 4.4623 0 5.5228 4.4772 10 10 10s10-4.4772 10-10c0-1.6234-.3953-3.1514-1.0818-4.5068-.745.5365-1.6993 1.1244-2.7068 1.1244z"/></svg>

<?xml version="1.0" encoding="utf-8"?>
<!-- Generator: Adobe Illustrator 19.1.0, SVG Export Plug-In . SVG Version: 6.00 Build 0)  -->
<svg version="1.2" baseProfile="tiny" xmlns="http://www.w3.org/2000/svg" xmlns:xlink="http://www.w3.org/1999/xlink" x="0px"
	 y="0px" width="64px" height="64px" viewBox="0 0 64 64" xml:space="preserve">
<g id="Box">
	<rect fill="none" width="64" height="64"/>
</g>
<g id="Icon">
	<g>
		<path d="M61.7751,32.2535l-8.5604-11.6379c-0.2841-0.3882-0.7368-0.6172-1.218-0.6158l-5.3231,0.0152
			c-0.2165,0.0007-0.4203,0.071-0.587,0.1924c-0.1655,0.123-0.2933,0.2966-0.3584,0.5031l-1.5998,5.077
			c-0.1446,0.4589-0.0609,0.9593,0.2252,1.3461l8.5604,11.6379c0.3292,0.4451,0.9864,0.5175,1.4315,0.1884l7.1831-5.2836
			C61.9755,33.3493,62.1021,32.7004,61.7751,32.2535z M49.8954,25.2156c-0.6778,0.4894-1.6211,0.3492-2.1156-0.3193
			c-0.496-0.6707-0.3517-1.618,0.3203-2.1215c0.6807-0.4915,1.6279-0.3471,2.1205,0.3261
			C50.7115,23.7721,50.5645,24.7144,49.8954,25.2156z"/>
		<path d="M41,8H5c-1.1046,0-2,0.8954-2,2v44c0,1.1046,0.8954,2,2,2h36c1.1046,0,2-0.8954,2-2V10C43,8.8954,42.1046,8,41,8z M7,13h8
			v3H7V13z M23,45.13c-7.2515,0-13.13-5.8785-13.13-13.13c0-7.2515,5.8785-13.13,13.13-13.13S36.13,24.7485,36.13,32
			C36.13,39.2515,30.2515,45.13,23,45.13z M36.5,17.0757c-1.4225,0-2.5757-1.1533-2.5757-2.5757
			c0-1.4226,1.1532-2.5757,2.5757-2.5757s2.5757,1.1531,2.5757,2.5757C39.0757,15.9225,37.9225,17.0757,36.5,17.0757z"/>
		<path d="M29.2114,28.6176c-1.2096,0-2.3425-0.8448-3.1266-1.433c-0.7841,0.5883-1.9194,1.433-3.1266,1.433
			c-1.2097,0-2.3425-0.8448-3.1266-1.433c-0.7841,0.5883-1.9194,1.433-3.1266,1.433c-0.9816,0-1.9092-0.5557-2.6445-1.0799
			C13.3878,28.8823,13,30.3942,13,32c0,5.5228,4.4772,10,10,10s10-4.4772,10-10c0-1.6234-0.3953-3.1514-1.0818-4.5068
			C31.1732,28.0297,30.2189,28.6176,29.2114,28.6176z"/>
	</g>
</g>
</svg>
